source/img/what-we-do/3.svg

<svg width="255" height="208" viewBox="0 0 255 208" fill="none" xmlns="http://www.w3.org/2000/svg">
<path d="M188.522 135.763C188.53 144.946 186.606 154.029 182.874 162.431C179.141 170.833 173.683 178.367 166.848 184.552C164.946 186.274 162.947 187.886 160.861 189.382C158.183 191.301 155.363 193.017 152.427 194.517H152.396C151.77 194.844 151.134 195.154 150.493 195.455C150.2 195.598 149.913 195.73 149.616 195.863C147.758 196.708 145.854 197.467 143.901 198.14C142.362 198.649 140.782 199.159 139.186 199.577C129.983 202.008 120.363 202.458 110.971 200.896C109.857 200.713 108.76 200.504 107.667 200.265L106.743 200.056C103.956 199.409 101.214 198.582 98.5353 197.58C96.9792 196.999 95.4539 196.362 93.9593 195.669C93.3796 195.399 92.7999 195.124 92.2304 194.838C91.8406 194.645 91.4558 194.446 91.071 194.247C80.6328 188.803 71.839 180.702 65.5902 170.772C59.3414 160.843 55.862 149.442 55.5084 137.738C55.1549 126.034 57.9398 114.447 63.578 104.163C69.2162 93.8798 77.5051 85.2691 87.5959 79.2132C97.6868 73.1572 109.217 69.8736 121.006 69.6985C132.795 69.5235 144.418 72.4633 154.687 78.2169C164.956 83.9705 173.5 92.3311 179.445 102.443C185.391 112.554 188.523 124.054 188.522 135.763Z" fill="url(#paint0_linear)"/>
<path d="M139.432 140.542C143.669 144.873 156.012 161.727 156.012 161.727L148.43 172.767L141.612 150.834L139.432 140.542Z" fill="url(#paint1_linear)"/>
<path d="M152.396 194.553C151.77 194.879 151.134 195.19 150.492 195.491C150.2 195.633 149.913 195.766 149.615 195.898C147.758 196.744 145.853 197.503 143.9 198.176C142.361 198.685 140.781 199.195 139.186 199.612C129.983 202.044 120.363 202.494 110.97 200.932C109.857 200.749 108.759 200.54 107.666 200.3C103.665 203.041 99.9713 205.359 97.5243 206.414L97.7243 204.718L98.5554 197.62L100.479 181.108L108.102 173.786L90.9629 175.106C90.9629 175.106 92.7635 150.294 99.7918 145.189C106.82 140.083 114.192 135.508 114.192 135.508C115.071 136.084 116.04 136.513 117.06 136.777C119.497 137.446 122.031 137.703 124.555 137.536C127.561 137.398 130.567 134.622 130.711 134.479C130.711 134.479 135.43 135.411 139.432 140.562C141.428 143.214 142.86 146.24 143.644 149.458C144.629 153.223 146.378 162.017 148.369 172.64C149.672 179.477 151.041 187.059 152.396 194.553Z" fill="url(#paint2_linear)"/>
<path d="M156.012 161.747L163.328 170.261L189.055 144.898L190.03 139.706L195.16 135.279L192.877 142.03V150.823C192.877 150.823 173.034 182.769 167.565 184.414C161.168 186.345 148.44 172.757 148.44 172.757L156.012 161.747Z" fill="url(#paint3_linear)"/>
<path d="M129.306 173.389L135.272 187.655L142.982 184.363L137.329 170.403L129.306 173.389Z" fill="#7E57C2"/>
<path d="M137.616 182.606C136.657 183.39 135.225 183.207 133.45 183.298C131.066 183.361 128.778 184.251 126.986 185.815C124.601 187.807 117.932 193.02 111.263 197.778C110.052 198.639 108.841 199.49 107.672 200.326C103.67 203.067 99.9766 205.385 97.5295 206.439C96.8862 206.757 96.1915 206.958 95.4775 207.036C92.0506 207.122 91.317 199.989 91.1066 194.298C91.04 192.408 91.0246 190.681 90.9886 189.433C90.845 184.44 90.9886 175.167 90.9886 175.167L108.128 173.842L106.312 185.632L105.994 187.716V187.731L111.124 185.846L111.283 185.79L129.495 179.07L130.752 176.915L131.552 178.952H131.629L139.427 177.934C139.427 177.934 139.56 181.021 137.616 182.606Z" fill="url(#paint4_linear)"/>
<path d="M133.681 108.25C133.234 107.038 132.85 106.212 132.737 105.968V105.907C132.737 105.907 132.342 106.875 129.366 106.64C126.391 106.406 125.406 104.939 125.406 104.939C125.406 104.939 126.34 108.118 122.795 109.478C119.383 110.793 118.039 109.942 117.947 109.881C118.126 110.074 120.794 112.907 119.024 115.154C117.193 117.482 113.073 117.024 113.073 117.024V117.054C113.592 118.22 114.172 119.358 114.812 120.463C115.151 121.044 115.484 121.579 115.838 122.078V122.114C116.747 123.581 117.974 124.829 119.429 125.767C118.79 129.495 116.952 132.918 114.192 135.523C115.12 136.005 116.078 136.428 117.059 136.792C118.973 137.51 121.543 138.224 123.836 138.025C126.493 137.743 128.948 136.486 130.721 134.499L129.546 130.021L128.489 125.986C138.041 123.566 135.415 113.04 133.681 108.25ZM127.956 126.133L128.125 126.093L128.397 126.016C128.001 126.186 127.583 126.299 127.155 126.353C127.376 126.296 127.602 126.235 127.838 126.164L127.956 126.133Z" fill="url(#paint5_linear)"/>
<path d="M139.432 105.774C135.492 109.371 133.789 108.357 133.681 108.261V108.25C133.235 107.038 132.85 106.212 132.743 105.968L132.717 105.907C132.717 105.907 132.317 106.875 129.341 106.64C126.366 106.406 125.386 104.939 125.386 104.939C125.386 104.939 126.32 108.118 122.775 109.478C119.358 110.793 118.014 109.942 117.927 109.881C118.107 110.069 120.774 112.902 119.004 115.149C117.173 117.477 113.053 117.024 113.053 117.024V117.049C113.572 118.217 114.152 119.356 114.792 120.463C115.134 121.04 115.476 121.579 115.818 122.078V122.114C115.818 122.114 114.413 124.86 111.904 124.804C109.396 124.748 109.339 122.256 109.339 122.256C109.339 122.256 107.564 125.435 102.08 122.373C96.5961 119.311 100.254 114.874 100.254 114.874C100.254 114.874 96.3652 111.919 96.3652 107.491C96.3652 103.064 102.419 99.696 102.419 99.696C102.419 99.696 100.254 94.5552 103.906 91.7224C107.559 88.8897 113.048 90.8104 113.048 90.8104C113.048 90.8104 112.941 84.2329 118.532 84.3399C124.124 84.4469 125.391 87.8452 125.391 87.8452C125.391 87.8452 130.419 83.9833 135.395 87.621C140.371 91.2588 138.324 97.602 138.324 97.602C138.324 97.602 143.541 102.029 139.432 105.774Z" fill="url(#paint6_linear)"/>
<path opacity="0.15" d="M129.587 130.006C127.202 129.257 122.959 126.398 122.959 126.398C124.633 126.574 126.325 126.485 127.971 126.134L128.14 126.093L128.469 125.996H128.515L129.587 130.006Z" fill="black"/>
<path opacity="0.15" d="M110.416 158.547L108.103 173.832L106.287 185.622L102.06 189.112L111.258 185.795C111.258 185.795 108.872 179.029 110.416 158.547Z" fill="black"/>
<path opacity="0.15" d="M107.656 200.3C108.749 200.54 109.847 200.749 110.96 200.932C111.016 199.888 111.119 198.833 111.263 197.778L107.656 200.3Z" fill="black"/>
<g filter="url(#filter0_d)">
<path d="M85.423 10H57.9925C54.2072 10 51.1387 13.0475 51.1387 16.8068V44.0493C51.1387 47.8086 54.2072 50.8561 57.9925 50.8561H85.423C89.2083 50.8561 92.2768 47.8086 92.2768 44.0493V16.8068C92.2768 13.0475 89.2083 10 85.423 10Z" fill="#56CCF2"/>
</g>
<path d="M82 29H77.83L81.07 25.76L79.66 24.34L75 29H73V27L77.66 22.34L76.24 20.93L73 24.17V20H71V24.17L67.76 20.93L66.34 22.34L71 27V29H69L64.34 24.34L62.93 25.76L66.17 29H62V31H66.17L62.93 34.24L64.34 35.66L69 31H71V33L66.34 37.66L67.76 39.07L71 35.83V40H73V35.83L76.24 39.07L77.66 37.66L73 33V31H75L79.66 35.66L81.07 34.24L77.83 31H82V29Z" fill="white"/>
<g filter="url(#filter1_d)">
<path d="M227.284 113H199.854C196.069 113 193 116.048 193 119.807V147.049C193 150.809 196.069 153.856 199.854 153.856H227.284C231.07 153.856 234.138 150.809 234.138 147.049V119.807C234.138 116.048 231.07 113 227.284 113Z" fill="#F2C94C"/>
</g>
<path d="M223 130C223 125 219 121 214 121C209 121 205 125 205 130C205 133.1 206.6 135.9 209 137.5V140C209 141.3 209.8 142.4 211 142.8V143C211 144.7 212.3 146 214 146C215.7 146 217 144.7 217 143V142.8C218.2 142.4 219 141.3 219 140V137.5C221.4 135.9 223 133.1 223 130ZM207 130C207 126.1 210.1 123 214 123C217.9 123 221 126.1 221 130C221 133.5 218.4 136.4 215 136.9V134.4L216.7 132.7C217.1 132.3 217.1 131.7 216.7 131.3C216.3 130.9 215.7 130.9 215.3 131.3L214 132.6L212.7 131.3C212.3 130.9 211.7 130.9 211.3 131.3C210.9 131.7 210.9 132.3 211.3 132.7L213 134.4V136.9C209.6 136.4 207 133.5 207 130ZM214 144C213.4 144 213 143.6 213 143H215C215 143.6 214.6 144 214 144ZM217 140C217 140.6 216.6 141 216 141H212C211.4 141 211 140.6 211 140V138.5C211.9 138.8 212.9 139 214 139C215.1 139 216.1 138.8 217 138.5V140Z" fill="white"/>
<g filter="url(#filter2_d)">
<path d="M44.2844 113H16.8538C13.0685 113 10 116.048 10 119.807V147.049C10 150.809 13.0685 153.856 16.8538 153.856H44.2844C48.0696 153.856 51.1381 150.809 51.1381 147.049V119.807C51.1381 116.048 48.0696 113 44.2844 113Z" fill="#F58A8A"/>
</g>
<path d="M37 130H36V128C36 125.24 33.76 123 31 123C28.24 123 26 125.24 26 128V130H25C23.9 130 23 130.9 23 132V142C23 143.1 23.9 144 25 144H37C38.1 144 39 143.1 39 142V132C39 130.9 38.1 130 37 130ZM31 139C29.9 139 29 138.1 29 137C29 135.9 29.9 135 31 135C32.1 135 33 135.9 33 137C33 138.1 32.1 139 31 139ZM34.1 130H27.9V128C27.9 126.29 29.29 124.9 31 124.9C32.71 124.9 34.1 126.29 34.1 128V130Z" fill="white"/>
<g filter="url(#filter3_d)">
<path d="M182.284 10H154.854C151.069 10 148 13.0475 148 16.8068V44.0493C148 47.8086 151.069 50.8561 154.854 50.8561H182.284C186.07 50.8561 189.138 47.8086 189.138 44.0493V16.8068C189.138 13.0475 186.07 10 182.284 10Z" fill="#6FCF97"/>
</g>
<path d="M174.311 24.8965H157.979V35.1033H174.311V24.8965Z" fill="white"/>
<path d="M178.713 26.9276L175.108 28.4427V31.6003L178.713 33.1153H180.02V26.9276H178.713Z" fill="white"/>
<defs>
<filter id="filter0_d" x="41.1387" y="0" width="71.1381" height="70.8561" filterUnits="userSpaceOnUse" color-interpolation-filters="sRGB">
<feFlood flood-opacity="0" result="BackgroundImageFix"/>
<feColorMatrix in="SourceAlpha" type="matrix" values="0 0 0 0 0 0 0 0 0 0 0 0 0 0 0 0 0 0 127 0" result="hardAlpha"/>
<feOffset dx="5" dy="5"/>
<feGaussianBlur stdDeviation="7.5"/>
<feColorMatrix type="matrix" values="0 0 0 0 0 0 0 0 0 0 0 0 0 0 0 0 0 0 0.15 0"/>
<feBlend mode="normal" in2="BackgroundImageFix" result="effect1_dropShadow"/>
<feBlend mode="normal" in="SourceGraphic" in2="effect1_dropShadow" result="shape"/>
</filter>
<filter id="filter1_d" x="183" y="103" width="71.1381" height="70.8561" filterUnits="userSpaceOnUse" color-interpolation-filters="sRGB">
<feFlood flood-opacity="0" result="BackgroundImageFix"/>
<feColorMatrix in="SourceAlpha" type="matrix" values="0 0 0 0 0 0 0 0 0 0 0 0 0 0 0 0 0 0 127 0" result="hardAlpha"/>
<feOffset dx="5" dy="5"/>
<feGaussianBlur stdDeviation="7.5"/>
<feColorMatrix type="matrix" values="0 0 0 0 0 0 0 0 0 0 0 0 0 0 0 0 0 0 0.15 0"/>
<feBlend mode="normal" in2="BackgroundImageFix" result="effect1_dropShadow"/>
<feBlend mode="normal" in="SourceGraphic" in2="effect1_dropShadow" result="shape"/>
</filter>
<filter id="filter2_d" x="0" y="103" width="71.1381" height="70.8561" filterUnits="userSpaceOnUse" color-interpolation-filters="sRGB">
<feFlood flood-opacity="0" result="BackgroundImageFix"/>
<feColorMatrix in="SourceAlpha" type="matrix" values="0 0 0 0 0 0 0 0 0 0 0 0 0 0 0 0 0 0 127 0" result="hardAlpha"/>
<feOffset dx="5" dy="5"/>
<feGaussianBlur stdDeviation="7.5"/>
<feColorMatrix type="matrix" values="0 0 0 0 0 0 0 0 0 0 0 0 0 0 0 0 0 0 0.15 0"/>
<feBlend mode="normal" in2="BackgroundImageFix" result="effect1_dropShadow"/>
<feBlend mode="normal" in="SourceGraphic" in2="effect1_dropShadow" result="shape"/>
</filter>
<filter id="filter3_d" x="138" y="0" width="71.1381" height="70.8561" filterUnits="userSpaceOnUse" color-interpolation-filters="sRGB">
<feFlood flood-opacity="0" result="BackgroundImageFix"/>
<feColorMatrix in="SourceAlpha" type="matrix" values="0 0 0 0 0 0 0 0 0 0 0 0 0 0 0 0 0 0 127 0" result="hardAlpha"/>
<feOffset dx="5" dy="5"/>
<feGaussianBlur stdDeviation="7.5"/>
<feColorMatrix type="matrix" values="0 0 0 0 0 0 0 0 0 0 0 0 0 0 0 0 0 0 0.15 0"/>
<feBlend mode="normal" in2="BackgroundImageFix" result="effect1_dropShadow"/>
<feBlend mode="normal" in="SourceGraphic" in2="effect1_dropShadow" result="shape"/>
</filter>
<linearGradient id="paint0_linear" x1="122.273" y1="76.8651" x2="120.029" y2="207.076" gradientUnits="userSpaceOnUse">
<stop stop-color="white" stop-opacity="0"/>
<stop offset="1" stop-color="#64B5F6" stop-opacity="0.6"/>
</linearGradient>
<linearGradient id="paint1_linear" x1="134.409" y1="136.165" x2="152.559" y2="168.279" gradientUnits="userSpaceOnUse">
<stop stop-color="#E57373"/>
<stop offset="1" stop-color="#AD1457"/>
</linearGradient>
<linearGradient id="paint2_linear" x1="28141.2" y1="39794.5" x2="26229.2" y2="49295.9" gradientUnits="userSpaceOnUse">
<stop stop-color="#E57373"/>
<stop offset="1" stop-color="#AD1457"/>
</linearGradient>
<linearGradient id="paint3_linear" x1="202.122" y1="147.94" x2="152.589" y2="176.833" gradientUnits="userSpaceOnUse">
<stop stop-color="#FFF8E1"/>
<stop offset="1" stop-color="#FFCC80"/>
</linearGradient>
<linearGradient id="paint4_linear" x1="21652.4" y1="22319.6" x2="18981.7" y2="20506.4" gradientUnits="userSpaceOnUse">
<stop stop-color="#FFF8E1"/>
<stop offset="1" stop-color="#FFCC80"/>
</linearGradient>
<linearGradient id="paint5_linear" x1="138.703" y1="113.439" x2="111.661" y2="124.652" gradientUnits="userSpaceOnUse">
<stop stop-color="#FFF8E1"/>
<stop offset="1" stop-color="#FFCC80"/>
</linearGradient>
<linearGradient id="paint6_linear" x1="132.486" y1="84.1463" x2="101.053" y2="126.911" gradientUnits="userSpaceOnUse">
<stop stop-color="#FFB74D"/>
<stop offset="1" stop-color="#F4511E"/>
</linearGradient>
</defs>
</svg>

<svg width="255" height="208" fill="none" xmlns="http://www.w3.org/2000/svg"><path d="M188.52 135.76c.01 9.19-1.91 18.27-5.65 26.67a65.95 65.95 0 0 1-22 26.95 66.14 66.14 0 0 1-8.44 5.14h-.03a50.1 50.1 0 0 1-2.78 1.34 64.75 64.75 0 0 1-10.43 3.72 67.28 67.28 0 0 1-31.52.68l-.93-.2a66.08 66.08 0 0 1-14.51-5.22l-1.16-.6a66.34 66.34 0 0 1-25.48-23.47 65.74 65.74 0 0 1-2.01-66.6A66.27 66.27 0 0 1 87.6 79.2a66.86 66.86 0 0 1 67.09-1 66.3 66.3 0 0 1 24.75 24.23 65.71 65.71 0 0 1 9.08 33.32Z" fill="url(#a)"/><path d="M139.43 140.54c4.24 4.33 16.58 21.19 16.58 21.19l-7.58 11.04-6.82-21.94-2.18-10.29Z" fill="url(#b)"/><path d="M152.4 194.55a50.92 50.92 0 0 1-2.78 1.35 64.33 64.33 0 0 1-10.43 3.71 67.26 67.26 0 0 1-31.52.69c-4 2.74-7.7 5.06-10.15 6.11l.2-1.7.84-7.09 1.92-16.51 7.62-7.32-17.14 1.32s1.8-24.82 8.83-29.92c7.03-5.1 14.4-9.68 14.4-9.68.88.57 1.85 1 2.87 1.27 2.44.67 4.97.92 7.5.76 3-.14 6-2.92 6.15-3.06 0 0 4.72.93 8.72 6.08a24.4 24.4 0 0 1 4.21 8.9c.99 3.76 2.74 12.56 4.73 23.18 1.3 6.84 2.67 14.42 4.03 21.91Z" fill="url(#c)"/><path d="m156.01 161.75 7.32 8.51 25.72-25.36.98-5.2 5.13-4.42-2.28 6.75v8.8s-19.85 31.94-25.31 33.58c-6.4 1.94-19.13-11.65-19.13-11.65l7.57-11.01Z" fill="url(#d)"/><path d="m129.3 173.39 5.97 14.27 7.71-3.3-5.65-13.96-8.02 2.99Z" fill="#7E57C2"/><path d="M137.62 182.6c-.96.79-2.4.6-4.17.7-2.38.06-4.67.95-6.46 2.51a319 319 0 0 1-15.73 11.97l-3.59 2.55c-4 2.74-7.7 5.05-10.14 6.1-.64.33-1.34.53-2.05.6-3.43.1-4.16-7.04-4.37-12.73-.07-1.9-.09-3.62-.12-4.87-.14-4.99 0-14.26 0-14.26l17.14-1.33-1.82 11.8-.32 2.08v.01l5.13-1.88.16-.06 18.22-6.72 1.25-2.16.8 2.04h.08l7.8-1.02s.13 3.1-1.81 4.68Z" fill="url(#e)"/><path d="M133.68 108.25c-.45-1.21-.83-2.04-.94-2.28v-.06s-.4.97-3.37.73c-2.98-.23-3.96-1.7-3.96-1.7s.93 3.18-2.61 4.54c-3.42 1.31-4.76.46-4.85.4.18.2 2.84 3.03 1.07 5.27-1.83 2.33-5.95 1.87-5.95 1.87v.03c.52 1.17 1.1 2.3 1.74 3.41.34.58.67 1.12 1.03 1.62v.03c.9 1.47 2.13 2.72 3.59 3.66a17.48 17.48 0 0 1-5.24 9.75c.93.48 1.89.9 2.87 1.27 1.91.72 4.48 1.43 6.78 1.24a10.75 10.75 0 0 0 6.88-3.53l-1.17-4.48-1.06-4.03c9.55-2.42 6.92-12.95 5.2-17.74Zm-5.72 17.88.17-.04.27-.07c-.4.17-.82.28-1.25.33.23-.05.45-.11.69-.19l.12-.03Z" fill="url(#f)"/><path d="M139.43 105.77c-3.94 3.6-5.64 2.59-5.75 2.5v-.02c-.44-1.21-.83-2.04-.94-2.28l-.02-.06s-.4.97-3.38.73c-2.97-.23-3.95-1.7-3.95-1.7s.93 3.18-2.61 4.54c-3.42 1.31-4.77.46-4.85.4.18.19 2.84 3.02 1.07 5.27-1.83 2.33-5.95 1.87-5.95 1.87v.03a29.16 29.16 0 0 0 2.77 5.03v.03s-1.4 2.75-3.92 2.7c-2.5-.06-2.56-2.55-2.56-2.55s-1.78 3.17-7.26.11c-5.48-3.06-1.83-7.5-1.83-7.5s-3.88-2.95-3.88-7.38 6.05-7.8 6.05-7.8-2.17-5.13 1.49-7.97c3.65-2.83 9.14-.91 9.14-.91s-.1-6.58 5.48-6.47c5.6.1 6.86 3.5 6.86 3.5s5.03-3.86 10-.22c4.98 3.64 2.93 9.98 2.93 9.98s5.22 4.43 1.11 8.17Z" fill="url(#g)"/><path opacity=".15" d="M129.59 130c-2.39-.74-6.63-3.6-6.63-3.6a16 16 0 0 0 5.01-.27l.17-.04.33-.1h.04l1.08 4.02ZM110.42 158.55l-2.32 15.28-1.81 11.8-4.23 3.48 9.2-3.32s-2.39-6.76-.84-27.24ZM107.66 200.3c1.09.24 2.19.45 3.3.63.06-1.04.16-2.1.3-3.15l-3.6 2.52Z" fill="#000"/><g filter="url(#h)"><path d="M85.42 10H58a6.83 6.83 0 0 0-6.85 6.8v27.25c0 3.76 3.07 6.8 6.85 6.8h27.43a6.83 6.83 0 0 0 6.86-6.8V16.8c0-3.76-3.07-6.81-6.86-6.81Z" fill="#56CCF2"/></g><path d="M82 29h-4.17l3.24-3.24-1.41-1.42L75 29h-2v-2l4.66-4.66-1.42-1.41L73 24.17V20h-2v4.17l-3.24-3.24-1.42 1.41L71 27v2h-2l-4.66-4.66-1.41 1.42L66.17 29H62v2h4.17l-3.24 3.24 1.41 1.42L69 31h2v2l-4.66 4.66 1.42 1.41L71 35.83V40h2v-4.17l3.24 3.24 1.42-1.41L73 33v-2h2l4.66 4.66 1.41-1.42L77.83 31H82v-2Z" fill="#fff"/><g filter="url(#i)"><path d="M227.28 113h-27.43a6.83 6.83 0 0 0-6.85 6.8v27.25c0 3.76 3.07 6.8 6.85 6.8h27.43a6.83 6.83 0 0 0 6.86-6.8V119.8c0-3.76-3.07-6.81-6.86-6.81Z" fill="#F2C94C"/></g><path d="M223 130c0-5-4-9-9-9s-9 4-9 9c0 3.1 1.6 5.9 4 7.5v2.5c0 1.3.8 2.4 2 2.8v.2c0 1.7 1.3 3 3 3s3-1.3 3-3v-.2c1.2-.4 2-1.5 2-2.8v-2.5c2.4-1.6 4-4.4 4-7.5Zm-16 0c0-3.9 3.1-7 7-7s7 3.1 7 7a7 7 0 0 1-6 6.9v-2.5l1.7-1.7c.4-.4.4-1 0-1.4-.4-.4-1-.4-1.4 0l-1.3 1.3-1.3-1.3c-.4-.4-1-.4-1.4 0-.4.4-.4 1 0 1.4l1.7 1.7v2.5a7 7 0 0 1-6-6.9Zm7 14c-.6 0-1-.4-1-1h2c0 .6-.4 1-1 1Zm3-4c0 .6-.4 1-1 1h-4c-.6 0-1-.4-1-1v-1.5a9.43 9.43 0 0 0 6 0v1.5Z" fill="#fff"/><g filter="url(#j)"><path d="M44.28 113H16.85a6.83 6.83 0 0 0-6.85 6.8v27.25c0 3.76 3.07 6.8 6.85 6.8h27.43a6.83 6.83 0 0 0 6.86-6.8V119.8c0-3.76-3.07-6.81-6.86-6.81Z" fill="#F58A8A"/></g><path d="M37 130h-1v-2a5 5 0 0 0-10 0v2h-1a2 2 0 0 0-2 2v10c0 1.1.9 2 2 2h12a2 2 0 0 0 2-2v-10a2 2 0 0 0-2-2Zm-6 9a2 2 0 0 1-2-2c0-1.1.9-2 2-2a2 2 0 0 1 2 2 2 2 0 0 1-2 2Zm3.1-9h-6.2v-2a3.1 3.1 0 0 1 6.2 0v2Z" fill="#fff"/><g filter="url(#k)"><path d="M182.28 10h-27.43a6.83 6.83 0 0 0-6.85 6.8v27.25c0 3.76 3.07 6.8 6.85 6.8h27.43a6.83 6.83 0 0 0 6.86-6.8V16.8c0-3.76-3.07-6.81-6.86-6.81Z" fill="#6FCF97"/></g><path d="M174.31 24.9h-16.33v10.2h16.33V24.9ZM178.71 26.93l-3.6 1.51v3.16l3.6 1.52h1.31v-6.2h-1.3Z" fill="#fff"/><defs><linearGradient id="a" x1="122.27" y1="76.87" x2="120.03" y2="207.08" gradientUnits="userSpaceOnUse"><stop stop-color="#fff" stop-opacity="0"/><stop offset="1" stop-color="#64B5F6" stop-opacity=".6"/></linearGradient><linearGradient id="b" x1="134.41" y1="136.16" x2="152.56" y2="168.28" gradientUnits="userSpaceOnUse"><stop stop-color="#E57373"/><stop offset="1" stop-color="#AD1457"/></linearGradient><linearGradient id="c" x1="28141.2" y1="39794.5" x2="26229.2" y2="49295.9" gradientUnits="userSpaceOnUse"><stop stop-color="#E57373"/><stop offset="1" stop-color="#AD1457"/></linearGradient><linearGradient id="d" x1="202.12" y1="147.94" x2="152.59" y2="176.83" gradientUnits="userSpaceOnUse"><stop stop-color="#FFF8E1"/><stop offset="1" stop-color="#FFCC80"/></linearGradient><linearGradient id="e" x1="21652.4" y1="22319.6" x2="18981.7" y2="20506.4" gradientUnits="userSpaceOnUse"><stop stop-color="#FFF8E1"/><stop offset="1" stop-color="#FFCC80"/></linearGradient><linearGradient id="f" x1="138.7" y1="113.44" x2="111.66" y2="124.65" gradientUnits="userSpaceOnUse"><stop stop-color="#FFF8E1"/><stop offset="1" stop-color="#FFCC80"/></linearGradient><linearGradient id="g" x1="132.49" y1="84.15" x2="101.05" y2="126.91" gradientUnits="userSpaceOnUse"><stop stop-color="#FFB74D"/><stop offset="1" stop-color="#F4511E"/></linearGradient><filter id="h" x="41.14" y="0" width="71.14" height="70.86" filterUnits="userSpaceOnUse" color-interpolation-filters="sRGB"><feFlood flood-opacity="0" result="BackgroundImageFix"/><feColorMatrix in="SourceAlpha" values="0 0 0 0 0 0 0 0 0 0 0 0 0 0 0 0 0 0 127 0" result="hardAlpha"/><feOffset dx="5" dy="5"/><feGaussianBlur stdDeviation="7.5"/><feColorMatrix values="0 0 0 0 0 0 0 0 0 0 0 0 0 0 0 0 0 0 0.15 0"/><feBlend in2="BackgroundImageFix" result="effect1_dropShadow"/><feBlend in="SourceGraphic" in2="effect1_dropShadow" result="shape"/></filter><filter id="i" x="183" y="103" width="71.14" height="70.86" filterUnits="userSpaceOnUse" color-interpolation-filters="sRGB"><feFlood flood-opacity="0" result="BackgroundImageFix"/><feColorMatrix in="SourceAlpha" values="0 0 0 0 0 0 0 0 0 0 0 0 0 0 0 0 0 0 127 0" result="hardAlpha"/><feOffset dx="5" dy="5"/><feGaussianBlur stdDeviation="7.5"/><feColorMatrix values="0 0 0 0 0 0 0 0 0 0 0 0 0 0 0 0 0 0 0.15 0"/><feBlend in2="BackgroundImageFix" result="effect1_dropShadow"/><feBlend in="SourceGraphic" in2="effect1_dropShadow" result="shape"/></filter><filter id="j" x="0" y="103" width="71.14" height="70.86" filterUnits="userSpaceOnUse" color-interpolation-filters="sRGB"><feFlood flood-opacity="0" result="BackgroundImageFix"/><feColorMatrix in="SourceAlpha" values="0 0 0 0 0 0 0 0 0 0 0 0 0 0 0 0 0 0 127 0" result="hardAlpha"/><feOffset dx="5" dy="5"/><feGaussianBlur stdDeviation="7.5"/><feColorMatrix values="0 0 0 0 0 0 0 0 0 0 0 0 0 0 0 0 0 0 0.15 0"/><feBlend in2="BackgroundImageFix" result="effect1_dropShadow"/><feBlend in="SourceGraphic" in2="effect1_dropShadow" result="shape"/></filter><filter id="k" x="138" y="0" width="71.14" height="70.86" filterUnits="userSpaceOnUse" color-interpolation-filters="sRGB"><feFlood flood-opacity="0" result="BackgroundImageFix"/><feColorMatrix in="SourceAlpha" values="0 0 0 0 0 0 0 0 0 0 0 0 0 0 0 0 0 0 127 0" result="hardAlpha"/><feOffset dx="5" dy="5"/><feGaussianBlur stdDeviation="7.5"/><feColorMatrix values="0 0 0 0 0 0 0 0 0 0 0 0 0 0 0 0 0 0 0.15 0"/><feBlend in2="BackgroundImageFix" result="effect1_dropShadow"/><feBlend in="SourceGraphic" in2="effect1_dropShadow" result="shape"/></filter></defs></svg>
